X: 08037
T: ERNIE'S #2
C: Bob McQuillen 27 Jan 91
B: Bob's Note Book 8 #37
%R: hornpipe
Z: 2021 John Chambers <jc:trillian.mit.edu>
M: C
L: 1/8
K: G
B>A \
| G2G>D B,>DG>B | A2A>G F>DG>A | B>GB>d c>BA>G | A>d^c>e d>=cB>A |
| G2G>D B,>DG>B | A2A>G F>DG>A | B>GB>d c>BA>G | D2G2 G2 :|
|: B>c \
| d2d>e d>BA>B | G2B>A B2B>c | d2d>e d>BG>A | B2A>G A2B>A |
| G2G>B A>GE>D | B>dB>G A>GE>D | G>Bd>g f>ed>c | B2G2 G2 :|
%%begintext align
%% If you look in
%% Book 3 on Pg.27, you will find "Ernie's Tune", written
%% back in 1978 for my good friend Ernie Spence. He
%% still comes up from Reading, MA, to the Peterborough
%% Dance, and he keeps on being real nice to me, and so
%% anyway, I hope you enjoy dancing to this tune, Ernie,
%% as much as I appreciate your many kindnesses.
%%endtext

%%sep 1 1 500

%%sep 1 1 500

